X:1
T:Title
%%score { 1 | 2 }
L:1/8
M:4/4
K:Ab
V:1 treble nm="Grand Piano"
V:2 bass 
V:1
 z4 z2[Q:1/4=108] [CE]>[CE] | [CA]2 [CA]2 [DF]2 [CE]2 | [CE]2 [CA]4 [EA]>B | c2 e2 c2 [EA]2 | %4
[M:3/4] B6 |[M:1/4] E>E |[M:4/4] [CA]2 [CA]2 [DF]2 [CE]2 | [CE]2 [CA]4 [EA]>[FB] | c2 e2 c2 B2 | %9
[M:3/4] [CA]6 |[M:1/4] [Ec]>[Ec] |[M:4/4] B2 c2 d2 B2 | [Ec]2 [CA]4 [EG]>[EG] | %13
 [DF]2 [DF]2 [=DB]2 [Dc]2 |[M:3/4] B6 |[M:1/4] E>E |[M:4/4] [CA]2 [CA]2 [Ec]2 [_Ge]2 | %17
 [Fe]2 [Fd]4 [Fd]>[Fd] | c2 A2 c2 B2 |[M:3/4] [CA]6 |] %20
V:2
 z4 z2 [A,,A,]>[A,,A,] | [A,,E,]2 [A,,E,]2 [A,,A,]2 [A,,A,]2 | [A,,A,]2 [A,,E,]4 [C,A,]>[E,G,E] | %3
 [A,E]2 [A,CE]2 [A,E]2 [C,A,]2 |[M:3/4] [E,G,E]6 |[M:1/4] [E,G,D]>[E,G,D] | %6
[M:4/4] [A,,E,]2 [A,,E,]2 [A,,A,]2 [A,,A,]2 | [A,,A,]2 [A,,E,]4 [C,A,]>[D,A,] | %8
 [E,A,E]2 [E,CE]2 [E,A,E]2 [E,G,D]2 |[M:3/4] [A,,A,]6 |[M:1/4] [A,,A,]>[A,,A,] | %11
[M:4/4] [E,G,E]2 [E,A,E]2 [E,B,E]2 [E,G,E]2 | [A,,A,]2 [A,,E,]4 [C,A,]>[C,A,] | %13
 [D,A,]2 [D,A,]2 [B,,A,]2 [B,,A,]2 |[M:3/4] [E,G,E]6 |[M:1/4] [E,G,D]>[E,G,D] | %16
[M:4/4] [A,,E,]2 [A,,E,]2 [A,,A,]2 [C,A,]2 | [D,A,]2 [D,A,]4 [D,A,]>[D,A,] | %18
 [E,A,E]2 [E,CE]2 [E,A,E]2 [E,G,D]2 |[M:3/4] [A,,A,]6 |] %20

